people/sent-email.svg

<svg xmlns="http://www.w3.org/2000/svg" viewBox="0 0 16 16"><defs><style>.cls-1{fill:#231f20}</style></defs><title>sent-email</title><path class="cls-1" d="M6.1 5.866v4.689a1.134 1.134 0 0 0 1.112 1.153h7.775a1.134 1.134 0 0 0 1.113-1.153V5.866a1.134 1.134 0 0 0-1.112-1.153H7.216A1.134 1.134 0 0 0 6.1 5.866zm9.041-.066L11.1 8.309h-.013L7.063 5.816a.162.162 0 0 1 .153-.116h7.775a.163.163 0 0 1 .15.1zm-2.055 2.423l2.068-1.282v2.9zm-5.613 2.5l2.5-1.955.621.385a.931.931 0 0 0 .988 0l.621-.385 2.5 1.955zm-.42-3.767L9.1 8.223l-2.043 1.6zM.1 6.442a.5.5 0 0 0 .493.5h4.076a.5.5 0 0 0 0-1H.6a.5.5 0 0 0-.5.5zm1.257 1.769a.5.5 0 0 0 .493.5h2.819a.5.5 0 0 0 0-1H1.85a.5.5 0 0 0-.493.5zM2.766 9.98a.5.5 0 0 0 .493.5h1.41a.5.5 0 0 0 0-1h-1.41a.5.5 0 0 0-.493.5z" id="Layer_1" data-name="Layer 1"/></svg>

<svg xmlns="http://www.w3.org/2000/svg" viewBox="0 0 16 16"><defs><style>.cls-1{fill:#231f20;}</style></defs><title>sent-email</title><g id="Layer_1" data-name="Layer 1"><path class="cls-1" d="M6.1,5.866v4.689a1.134,1.134,0,0,0,1.112,1.153h7.775A1.134,1.134,0,0,0,16.1,10.555V5.866a1.134,1.134,0,0,0-1.112-1.153H7.216A1.134,1.134,0,0,0,6.1,5.866ZM15.141,5.8,11.1,8.309h-.013L7.063,5.816A.162.162,0,0,1,7.216,5.7h7.775A.163.163,0,0,1,15.141,5.8ZM13.086,8.223l2.068-1.282v2.9Zm-5.613,2.5,2.5-1.955.621.385a.931.931,0,0,0,.988,0l.621-.385,2.5,1.955Zm-.42-3.767L9.1,8.223l-2.043,1.6ZM.1,6.442a.5.5,0,0,0,.493.5H4.669a.5.5,0,0,0,0-1H.6A.5.5,0,0,0,.1,6.442ZM1.357,8.211a.5.5,0,0,0,.493.5H4.669a.5.5,0,0,0,0-1H1.85A.5.5,0,0,0,1.357,8.211ZM2.766,9.98a.5.5,0,0,0,.493.5H4.669a.5.5,0,0,0,0-1H3.259A.5.5,0,0,0,2.766,9.98Z"/></g></svg>
